X:11
T:Bird in the Bush
Z: id:dc-reel-13
M:C
L:1/8
K:G Major
B|d2e^c dBB2|cBAB G2AG|EAAc BGGA|BABd efge|!
d2e^c dBB2|cBAB G2GE|DEGA Bdge|dBAc BGG:|!
A|BABd g2bg|agef gedB|GABd g2bg|agef g2ga|!
bgg2 agef|gage dBGE|DEGA Bdge|dBAc BGG:|!

